fileicons/icons/c-lang.svg

<svg xmlns="http://www.w3.org/2000/svg" width="24" height="24" viewBox="0 0 24 24"><path d="M15.45 15.97l.42 2.44c-.26.14-.68.27-1.24.39-.57.13-1.24.2-2.01.2-2.21-.04-3.87-.7-4.98-1.96-1.14-1.27-1.68-2.88-1.68-4.83C6 9.9 6.68 8.13 8 6.89 9.28 5.64 10.92 5 12.9 5c.75 0 1.4.07 1.94.19s.94.25 1.2.4l-.6 2.49-1.04-.34c-.4-.1-.87-.15-1.4-.15-1.15-.01-2.11.36-2.86 1.1-.76.73-1.14 1.85-1.18 3.34.01 1.36.37 2.42 1.08 3.2.71.77 1.7 1.17 2.99 1.18l1.33-.12c.43-.08.79-.19 1.09-.32z" fill="#0277bd"/></svg>

<?xml version="1.0" encoding="UTF-8" standalone="no"?>
<svg
   xmlns:dc="http://purl.org/dc/elements/1.1/"
   xmlns:cc="http://creativecommons.org/ns#"
   xmlns:rdf="http://www.w3.org/1999/02/22-rdf-syntax-ns#"
   xmlns:svg="http://www.w3.org/2000/svg"
   xmlns="http://www.w3.org/2000/svg"
   xmlns:sodipodi="http://sodipodi.sourceforge.net/DTD/sodipodi-0.dtd"
   xmlns:inkscape="http://www.inkscape.org/namespaces/inkscape"
   version="1.1"
   width="24"
   height="24"
   viewBox="0 0 24 24"
   id="svg2"
   inkscape:version="0.91 r13725"
   sodipodi:docname="c-lang.svg">
  <metadata
     id="metadata10">
    <rdf:RDF>
      <cc:Work
         rdf:about="">
        <dc:format>image/svg+xml</dc:format>
        <dc:type
           rdf:resource="http://purl.org/dc/dcmitype/StillImage" />
      </cc:Work>
    </rdf:RDF>
  </metadata>
  <defs
     id="defs8" />
  <sodipodi:namedview
     pagecolor="#ffffff"
     bordercolor="#666666"
     borderopacity="1"
     objecttolerance="10"
     gridtolerance="10"
     guidetolerance="10"
     inkscape:pageopacity="0"
     inkscape:pageshadow="2"
     inkscape:window-width="1366"
     inkscape:window-height="705"
     id="namedview6"
     showgrid="false"
     inkscape:zoom="9.8333333"
     inkscape:cx="-4.9322034"
     inkscape:cy="11.79661"
     inkscape:window-x="-8"
     inkscape:window-y="-8"
     inkscape:window-maximized="1"
     inkscape:current-layer="svg2" />
  <path
     d="M15.45,15.97L15.87,18.41C15.61,18.55 15.19,18.68 14.63,18.8C14.06,18.93 13.39,19 12.62,19C10.41,18.96 8.75,18.3 7.64,17.04C6.5,15.77 5.96,14.16 5.96,12.21C6,9.9 6.68,8.13 8,6.89C9.28,5.64 10.92,5 12.9,5C13.65,5 14.3,5.07 14.84,5.19C15.38,5.31 15.78,5.44 16.04,5.59L15.44,8.08L14.4,7.74C14,7.64 13.53,7.59 13,7.59C11.85,7.58 10.89,7.95 10.14,8.69C9.38,9.42 9,10.54 8.96,12.03C8.97,13.39 9.33,14.45 10.04,15.23C10.75,16 11.74,16.4 13.03,16.41L14.36,16.29C14.79,16.21 15.15,16.1 15.45,15.97Z"
     id="path4"
     style="fill:#0277bd;fill-opacity:1" />
</svg>
